fs/mail_read_24_filled.svg

<svg viewBox="0 0 24 24" fill="none" xmlns="http://www.w3.org/2000/svg" height="1em" width="1em">
  <path d="M1.99976 10.127L11.653 15.1649C11.8704 15.2784 12.1295 15.2784 12.3468 15.1649L21.9999 10.128V17.75C21.9999 19.483 20.6435 20.8992 18.9343 20.9949L18.7499 21H5.24991C3.51688 21 2.10066 19.6435 2.00505 17.9344L1.99976 17.75V10.127ZM3.09999 8.16928L11.6166 3.10535C11.8191 2.98495 12.0641 2.96775 12.2788 3.05375L12.3832 3.10535L20.8998 8.16928C21.1349 8.30906 21.3386 8.48797 21.5047 8.69491L11.9999 13.6541L2.49513 8.69491C2.61967 8.5397 2.76539 8.40027 2.92965 8.28128L3.09999 8.16928L11.6166 3.10535L3.09999 8.16928Z" fill="#212121"/>
</svg>

<svg viewBox="0 0 24 24" fill="none" xmlns="http://www.w3.org/2000/svg" height="1em" width="1em">
  <path d="m2 10.127 9.653 5.038a.75.75 0 0 0 .694 0L22 10.128v7.622a3.25 3.25 0 0 1-3.066 3.245L18.75 21H5.25a3.25 3.25 0 0 1-3.245-3.066L2 17.75v-7.623Zm1.1-1.958 8.517-5.064a.75.75 0 0 1 .662-.051l.104.051L20.9 8.17c.235.14.439.319.605.526L12 13.655l-9.505-4.96a2.25 2.25 0 0 1 .435-.414l.17-.112 8.517-5.064L3.1 8.17Z" fill="#212121"/>
</svg>
